X:87
T: Fejér retek fekete
O: Bogdánfalva (Bákó), 1929
Q: 1/4=160
M:2/4
L:1/4
K:C
d/c/B/A/ | B/A/(^G/F/) | 
^G/F/E/D/ | A2 | 
d/c/B/A/ | B/A/(^G/F/) | 
^G/F/E/A/ | D2 | 

